images/swordman.svg

<svg xmlns="http://www.w3.org/2000/svg" viewBox="0 0 512 512" style="height: 512px; width: 512px;"><path d="M0 0h512v512H0z" fill="#000" fill-opacity="1"></path><g class="" transform="translate(0,0)" style=""><path d="M467.838 35.848c-53.208 3.518-101.284 8.091-139.14 50.18 9.869 29.563 26.168 65.884 46.613 95.234 20.504 29.436 44.758 50.59 68.61 53.297 35.265-33.057 53.699-112.599 23.917-198.711zM189.8 46.02a70.936 54.43 66.039 0 0-15.987 3.638 70.936 54.43 66.039 0 0-20.931 86.928 70.936 54.43 66.039 0 0 51.62 45.443c2.392 57.507-19.428 43.883-70.534 73.606l15.888 31.69c35.566-13.731 51.844-19.703 69.27-44.317 32.586 93.92-1.874 157.236-23.688 247.078l33.711 4.916c23.698-57.247 55.114-122.355 62.438-181.422 48.937 51.134 77.498 114.641 114.65 169.143l35.82-14.75c-45.81-80.724-65.633-128.371-150.591-262.19 26.819-.194 49.826-6.592 70.683-15.422-7.036-10.105-13.565-20.882-19.529-31.886-28.223 12.083-59.028 16.997-90.14.855a70.936 54.43 66.039 0 0-.118-66.955 70.936 54.43 66.039 0 0-62.562-46.355zM15.47 87.309l3.287 34.09 52.6 107.77 21.568-10.526-52.383-107.325-25.072-24.01zm97.066 139.566l-46.756 22.822 3.137 18.496 56.271-27.464-12.652-13.854zm2.318 36.701l-21.568 10.528 16.668 34.15 21.568-10.527-16.668-34.15z" fill="#fff" fill-opacity="1"></path></g></svg>

<svg xmlns="http://www.w3.org/2000/svg" viewBox="0 0 512 512" style="height: 512px; width: 512px;"><defs><filter id="shadow-1" height="300%" width="300%" x="-100%" y="-100%"><feFlood flood-color="rgba(255, 255, 255, 1)" result="flood"></feFlood><feComposite in="flood" in2="SourceGraphic" operator="atop" result="composite"></feComposite><feGaussianBlur in="composite" stdDeviation="15" result="blur"></feGaussianBlur><feOffset dx="0" dy="0" result="offset"></feOffset><feComposite in="SourceGraphic" in2="offset" operator="over"></feComposite></filter><filter id="shadow-2" height="300%" width="300%" x="-100%" y="-100%"><feFlood flood-color="rgba(255, 255, 255, 1)" result="flood"></feFlood><feComposite in="flood" in2="SourceGraphic" operator="atop" result="composite"></feComposite><feGaussianBlur in="composite" stdDeviation="15" result="blur"></feGaussianBlur><feOffset dx="0" dy="0" result="offset"></feOffset><feComposite in="SourceGraphic" in2="offset" operator="over"></feComposite></filter><filter id="shadow-4" height="300%" width="300%" x="-100%" y="-100%"><feFlood flood-color="rgba(255, 255, 255, 1)" result="flood"></feFlood><feComposite in="flood" in2="SourceGraphic" operator="atop" result="composite"></feComposite><feGaussianBlur in="composite" stdDeviation="15" result="blur"></feGaussianBlur><feOffset dx="0" dy="0" result="offset"></feOffset><feComposite in="SourceGraphic" in2="offset" operator="over"></feComposite></filter><filter id="shadow-5" height="300%" width="300%" x="-100%" y="-100%"><feFlood flood-color="rgba(255, 255, 255, 1)" result="flood"></feFlood><feComposite in="flood" in2="SourceGraphic" operator="atop" result="composite"></feComposite><feGaussianBlur in="composite" stdDeviation="15" result="blur"></feGaussianBlur><feOffset dx="0" dy="0" result="offset"></feOffset><feComposite in="SourceGraphic" in2="offset" operator="over"></feComposite></filter><filter id="shadow-6" height="300%" width="300%" x="-100%" y="-100%"><feFlood flood-color="rgba(255, 255, 255, 1)" result="flood"></feFlood><feComposite in="flood" in2="SourceGraphic" operator="atop" result="composite"></feComposite><feGaussianBlur in="composite" stdDeviation="15" result="blur"></feGaussianBlur><feOffset dx="0" dy="0" result="offset"></feOffset><feComposite in="SourceGraphic" in2="offset" operator="over"></feComposite></filter></defs><g class="" transform="translate(0,0)" style=""><g><path d="M467.838 35.848C414.63 39.366 366.554 43.939 328.698 86.028C338.567 115.591 354.866 151.912 375.311 181.262C395.815 210.698 420.069 231.852 443.921 234.559C479.186 201.502 497.62 121.96 467.838 35.848Z" class="selected" fill="#9b9b9b" filter="url(#shadow-2)" fill-opacity="1"></path><path d="M189.8 46.02C184.186 46.217 178.797 47.443 173.813 49.658C146.343 61.866 136.972 100.785 152.882 136.586C163.503 160.464 183.337 177.925 204.502 182.029C206.894 239.536 185.074 225.912 133.968 255.635L149.856 287.325C185.422 273.594 201.7 267.622 219.126 243.008C251.712 336.928 217.252 400.244 195.438 490.086L229.149 495.002C252.847 437.755 284.263 372.647 291.587 313.58C340.524 364.714 369.085 428.221 406.237 482.723L442.057 467.973C396.247 387.249 376.424 339.602 291.466 205.783C318.285 205.589 341.292 199.191 362.149 190.361C355.113 180.256 348.584 169.479 342.62 158.475C314.397 170.558 283.592 175.472 252.48 159.33C262.631 140.944 262.586 115.448 252.362 92.375C239.731 63.953 214.367 45.16 189.8 46.02Z" class="" fill="#48baff" fill-opacity="1"></path><path d="M15.47 87.309L18.757 121.399L71.357 229.169L92.925 218.643L40.542 111.318L15.47 87.308Z" class="" fill="#9b9b9b" filter="url(#shadow-4)" fill-opacity="1"></path><path d="M112.536 226.875L65.78 249.697L68.917 268.193L125.188 240.729L112.536 226.875Z" class="" fill="#4a4a4a" fill-opacity="1" filter="url(#shadow-5)"></path><path d="M114.854 263.576L93.286 274.104L109.954 308.254L131.522 297.727L114.854 263.577Z" class="" fill="#8b572a" fill-opacity="1" filter="url(#shadow-6)"></path></g></g></svg>
